fs/target_arrow_20_filled.svg

<svg viewBox="0 0 20 20" fill="none" xmlns="http://www.w3.org/2000/svg" height="1em" width="1em">
  <path d="M17.6029 7.5189C17.8569 8.29916 17.9942 9.13209 17.9942 9.9971C17.9942 14.4148 14.4129 17.9961 9.99514 17.9961C5.57739 17.9961 1.99609 14.4148 1.99609 9.9971C1.99609 5.57934 5.57739 1.99805 9.99514 1.99805C10.8646 1.99805 11.7018 2.13678 12.4855 2.39332L11.4392 3.43957C11.3813 3.49748 11.3286 3.55964 11.2814 3.62532C10.8657 3.54185 10.4355 3.49805 9.99514 3.49805C6.40582 3.49805 3.49609 6.40777 3.49609 9.9971C3.49609 13.5864 6.40582 16.4961 9.99514 16.4961C13.5845 16.4961 16.4942 13.5864 16.4942 9.9971C16.4942 9.56098 16.4512 9.13489 16.3693 8.72284C16.4371 8.67464 16.5012 8.62058 16.5608 8.56098L17.6029 7.5189ZM14.8982 9.00032C14.9638 9.32336 14.9982 9.65771 14.9982 10.0001C14.9982 12.7615 12.7596 15.0001 9.99817 15.0001C7.23675 15.0001 4.99817 12.7615 4.99817 10.0001C4.99817 7.23867 7.23675 5.00009 9.99817 5.00009C10.3412 5.00009 10.6763 5.03465 10.9999 5.10046L11.0001 6.6456C10.6827 6.55093 10.3463 6.50009 9.99817 6.50009C8.06517 6.50009 6.49817 8.06709 6.49817 10.0001C6.49817 11.9331 8.06517 13.5001 9.99817 13.5001C11.9312 13.5001 13.4982 11.9331 13.4982 10.0001C13.4982 9.65269 13.4476 9.31711 13.3533 9.00032H14.8982ZM9.99817 11.5001C10.8266 11.5001 11.4982 10.8285 11.4982 10.0001C11.4982 9.86627 11.4806 9.73651 11.4477 9.61302L13.0303 8.03044C13.0402 8.02053 13.0498 8.01042 13.059 8.00011H15.5004C15.633 8.00011 15.7602 7.94744 15.8539 7.85367L17.8539 5.85367C17.9969 5.71067 18.0397 5.49561 17.9623 5.30878C17.8849 5.12194 17.7026 5.00012 17.5004 5.00012L15.0002 5.00006V2.50005C15.0002 2.29782 14.8784 2.1155 14.6915 2.03811C14.5047 1.96072 14.2896 2.00349 14.1466 2.14648L12.1465 4.14649C12.0527 4.24027 12 4.36747 12.0001 4.5001L12.0003 6.94079C11.9899 6.95011 11.9797 6.95977 11.9697 6.96978L10.3881 8.55131C10.2638 8.51793 10.1331 8.50012 9.99817 8.50012C9.16974 8.50012 8.49817 9.17169 8.49817 10.0001C8.49817 10.8285 9.16974 11.5001 9.99817 11.5001Z" fill="#212121"/>
</svg>

<svg viewBox="0 0 20 20" fill="none" xmlns="http://www.w3.org/2000/svg" height="1em" width="1em">
  <path d="M17.603 7.519a7.999 7.999 0 1 1-5.117-5.126L11.438 3.44c-.058.057-.11.12-.158.185a6.5 6.5 0 1 0 5.088 5.098 1.5 1.5 0 0 0 .192-.162l1.042-1.042ZM14.898 9A5 5 0 1 1 11 5.1v1.546A3.5 3.5 0 1 0 13.353 9h1.545Zm-4.9 2.5a1.5 1.5 0 0 0 1.45-1.887L13.03 8.03l.03-.03h2.44a.5.5 0 0 0 .354-.146l2-2A.5.5 0 0 0 17.5 5H15V2.5a.5.5 0 0 0-.853-.354l-2 2A.5.5 0 0 0 12 4.5v2.44a.763.763 0 0 0-.03.03l-1.582 1.58A1.501 1.501 0 0 0 8.498 10a1.5 1.5 0 0 0 1.5 1.5Z" fill="#212121"/>
</svg>
